<?xml version="1.0" encoding="UTF-8"?>
<map version="1.10" tiledversion="1.11.0" orientation="orthogonal" renderorder="right-down" width="10" height="10" tilewidth="17" tileheight="17" infinite="0" nextlayerid="3" nextobjectid="1">
 <tileset firstgid="1" source="Game Boy GBC - The Legend of Zelda Links Awakening DX - Overworld Tileset.tsx"/>
 <layer id="1" name="Map" width="10" height="10">
  <data>
   <tile gid="175"/>
   <tile gid="176"/>
   <tile gid="175"/>
   <tile gid="176"/>
   <tile gid="175"/>
   <tile gid="176"/>
   <tile gid="22"/>
   <tile gid="23"/>
   <tile gid="24"/>
   <tile gid="176"/>
   <tile gid="199"/>
   <tile gid="200"/>
   <tile gid="199"/>
   <tile gid="200"/>
   <tile gid="199"/>
   <tile gid="200"/>
   <tile gid="46"/>
   <tile gid="47"/>
   <tile gid="48"/>
   <tile gid="200"/>
   <tile gid="175"/>
   <tile gid="176"/>
   <tile gid="177"/>
   <tile gid="178"/>
   <tile gid="175"/>
   <tile gid="176"/>
   <tile gid="141"/>
   <tile gid="142"/>
   <tile gid="143"/>
   <tile gid="176"/>
   <tile gid="199"/>
   <tile gid="200"/>
   <tile gid="201"/>
   <tile gid="202"/>
   <tile gid="199"/>
   <tile gid="200"/>
   <tile gid="165"/>
   <tile gid="166"/>
   <tile gid="167"/>
   <tile gid="200"/>
   <tile gid="175"/>
   <tile gid="176"/>
   <tile gid="175"/>
   <tile gid="176"/>
   <tile gid="175"/>
   <tile gid="176"/>
   <tile gid="175"/>
   <tile gid="176"/>
   <tile gid="175"/>
   <tile gid="176"/>
   <tile gid="199"/>
   <tile gid="200"/>
   <tile gid="199"/>
   <tile gid="200"/>
   <tile gid="199"/>
   <tile gid="200"/>
   <tile gid="199"/>
   <tile gid="200"/>
   <tile gid="199"/>
   <tile gid="200"/>
   <tile gid="175"/>
   <tile gid="176"/>
   <tile gid="175"/>
   <tile gid="176"/>
   <tile gid="177"/>
   <tile gid="178"/>
   <tile gid="175"/>
   <tile gid="176"/>
   <tile gid="175"/>
   <tile gid="176"/>
   <tile gid="199"/>
   <tile gid="200"/>
   <tile gid="199"/>
   <tile gid="200"/>
   <tile gid="201"/>
   <tile gid="202"/>
   <tile gid="199"/>
   <tile gid="200"/>
   <tile gid="199"/>
   <tile gid="200"/>
   <tile gid="175"/>
   <tile gid="176"/>
   <tile gid="175"/>
   <tile gid="176"/>
   <tile gid="175"/>
   <tile gid="176"/>
   <tile gid="175"/>
   <tile gid="176"/>
   <tile gid="175"/>
   <tile gid="176"/>
   <tile gid="199"/>
   <tile gid="200"/>
   <tile gid="199"/>
   <tile gid="200"/>
   <tile gid="199"/>
   <tile gid="200"/>
   <tile gid="199"/>
   <tile gid="200"/>
   <tile gid="199"/>
   <tile gid="200"/>
  </data>
 </layer>
</map>
